TH1/autozoom.svg

<svg xmlns="http://www.w3.org/2000/svg" viewBox="0 0 1200 800" preserveAspectRatio="none" width="1200" height="800">
 <path d="M0,0H1200V800H0Z" style="fill: white;"></path>
 <g>
  <g transform="translate(120,80)">
   <path d="M0,0H960V640H0Z" style="fill: white; stroke: black; stroke-width: 1;"></path>
   <svg x="0" y="0" overflow="hidden" width="960" height="640" viewBox="0 0 960 640">
    <g>
     <path d="M-10,640h10v-1h10v1h39v-2h10v-1h19v-2h10v1h10v-4h10v-2h10v-1h9v-5h20v-7h10v-5h10v-11h9v5h10v-15h10v7h10v-18h10v-21h9v-1h10v-3h10v-36h10v-6h9v-11h10v-17h10v-47h10v-3h10v-25h9v-12h10v-37h10v-14h10v-51h10v-35h19v-39h10v-27h10v-69h10v32h9v-54h10v45h10v-53h10v-27h10v17h9v24h10v-36h10v-44h10v73h10v2h9v12h10v4h10v49h10v17h10v12h9v25h10v16h10v9h10v36h10v44h9v13h10v21h10v63h10v-6h10v29h9v24h10v15h10v22h10v18h10v23h9v-1h10v21h10v6h10v16h9v3h10v12h10v7h10v-8h10v12h9v5h10v4h20v4h10v-1h9v7h10v-4h10v2h10v3h29v1h49v-1h10" style="stroke-linejoin: miter; stroke: #00009a; stroke-width: 1; fill: none;"></path>
    </g>
   </svg>
   <g>
    <g transform="translate(0,640)">
     <path d="M0,0h960M5,-12v12m24,-12v12m25,-12v12m24,-12v12m25,-24v24m24,-12v12m25,-12v12m24,-12v12m25,-12v12m24,-24v24m25,-12v12m24,-12v12m25,-12v12m24,-12v12m25,-24v24m24,-12v12m25,-12v12m24,-12v12m25,-12v12m24,-24v24m25,-12v12m24,-12v12m25,-12v12m24,-12v12m25,-24v24m24,-12v12m25,-12v12m24,-12v12m25,-12v12m24,-24v24m25,-12v12m24,-12v12m25,-12v12m24,-12v12m25,-24v24m24,-12v12m25,-12v12m24,-12v12m25,-12v12m24,-24v24" style="stroke: black; stroke-width: 1;"></path>
     <g font-family="Arial" font-size="28" space="preserve" fill="black" text-anchor="middle">
      <text dy=".8em" transform="translate(103,6)">
       -3
      </text>
      <text dy=".8em" transform="translate(225,6)">
       -2
      </text>
      <text dy=".8em" transform="translate(348,6)">
       -1
      </text>
      <text dy=".8em" transform="translate(470,6)">
       0
      </text>
      <text dy=".8em" transform="translate(593,6)">
       1
      </text>
      <text dy=".8em" transform="translate(715,6)">
       2
      </text>
      <text dy=".8em" transform="translate(838,6)">
       3
      </text>
      <text dy=".8em" transform="translate(960,6)">
       4
      </text>
     </g>
    </g>
    <g>
     <path d="M0,0v640M36,640h-36m18,-14h-18m18,-14h-18m18,-14h-18m18,-15h-18m36,-14h-36m18,-14h-18m18,-14h-18m18,-14h-18m18,-14h-18m36,-14h-36m18,-14h-18m18,-15h-18m18,-14h-18m18,-14h-18m36,-14h-36m18,-14h-18m18,-14h-18m18,-14h-18m18,-14h-18m36,-15h-36m18,-14h-18m18,-14h-18m18,-14h-18m18,-14h-18m36,-14h-36m18,-14h-18m18,-14h-18m18,-15h-18m18,-14h-18m36,-14h-36m18,-14h-18m18,-14h-18m18,-14h-18m18,-14h-18m36,-14h-36m18,-15h-18m18,-14h-18m18,-14h-18m18,-14h-18m36,-14h-36m18,-14h-18m18,-14h-18m18,-14h-18m18,-15h-18m36,-14h-36" style="stroke: black; stroke-width: 1;"></path>
     <g font-family="Arial" font-size="28" space="preserve" fill="black" text-anchor="end">
      <text dy=".4em" transform="translate(-4,640)">
       0
      </text>
      <text dy=".4em" transform="translate(-4,569)">
       100
      </text>
      <text dy=".4em" transform="translate(-4,499)">
       200
      </text>
      <text dy=".4em" transform="translate(-4,428)">
       300
      </text>
      <text dy=".4em" transform="translate(-4,357)">
       400
      </text>
      <text dy=".4em" transform="translate(-4,287)">
       500
      </text>
      <text dy=".4em" transform="translate(-4,216)">
       600
      </text>
      <text dy=".4em" transform="translate(-4,146)">
       700
      </text>
      <text dy=".4em" transform="translate(-4,75)">
       800
      </text>
      <text dy=".4em" transform="translate(-4,4)">
       900
      </text>
     </g>
    </g>
   </g>
  </g>
  <g transform="translate(120,4)" font-family="Arial" font-size="40" space="preserve">
   <text fill="black" text-anchor="middle" dy=".8em" transform="translate(480)">
    This is the px distribution
   </text>
  </g>
  <g transform="translate(936,52)" font-family="Arial" font-size="25" space="preserve" fill="black">
   <path d="M0,0H240V128H0Z" style="fill: white; stroke: black; stroke-width: 1;"></path>
   <text text-anchor="middle" dy=".4em" transform="translate(120,16)">
    hpx
   </text>
   <text text-anchor="start" dy=".4em" transform="translate(12,48)">
    Entries
   </text>
   <text text-anchor="end" dy=".4em" transform="translate(228,48)">
    25000
   </text>
   <text text-anchor="start" dy=".4em" transform="translate(12,80)">
    Mean
   </text>
   <text text-anchor="end" dy=".4em" transform="translate(228,80)">
    0.003295
   </text>
   <text text-anchor="start" dy=".4em" transform="translate(12,112)">
    Std Dev
   </text>
   <text text-anchor="end" dy=".4em" transform="translate(228,112)">
    1.005
   </text>
   <path d="M0,32h240" style="stroke: black; stroke-width: 1;"></path>
  </g>
 </g>
</svg>

<svg xmlns="http://www.w3.org/2000/svg" viewBox="0 0 1200 800" preserveAspectRatio="none" width="1200" height="800">
 <path d="M0,0H1200V800H0Z" style="fill: white;"></path>
 <g>
  <g transform="translate(120,80)">
   <path d="M0,0H960V640H0Z" style="fill: white; stroke: black; stroke-width: 1;"></path>
   <svg x="0" y="0" overflow="hidden" width="960" height="640" viewBox="0 0 960 640">
    <g>
     <path d="M-10,640h10v-1h10v1h39v-2h10v-1h19v-2h10v1h10v-4h10v-2h10v-1h9v-5h20v-7h10v-5h10v-11h9v5h10v-15h10v7h10v-18h10v-21h9v-1h10v-3h10v-36h10v-6h9v-11h10v-17h10v-47h10v-3h10v-25h9v-12h10v-37h10v-14h10v-51h10v-35h19v-39h10v-27h10v-69h10v32h9v-54h10v45h10v-53h10v-27h10v17h9v24h10v-36h10v-44h10v73h10v2h9v12h10v4h10v49h10v17h10v12h9v25h10v16h10v9h10v36h10v44h9v13h10v21h10v63h10v-6h10v29h9v24h10v15h10v22h10v18h10v23h9v-1h10v21h10v6h10v16h9v3h10v12h10v7h10v-8h10v12h9v5h10v4h20v4h10v-1h9v7h10v-4h10v2h10v3h29v1h49v-1h10" style="stroke-linejoin: miter; stroke: #00009a; stroke-width: 1; fill: none;"></path>
    </g>
   </svg>
   <g>
    <g transform="translate(0,640)">
     <path d="M0,0h960M5,-12V0M29,-12V0M54,-12V0M78,-12V0M103,-24V0M127,-12V0M152,-12V0M176,-12V0M201,-12V0M225,-24V0M250,-12V0M274,-12V0M299,-12V0M323,-12V0M348,-24V0M372,-12V0M397,-12V0M421,-12V0M446,-12V0M470,-24V0M495,-12V0M519,-12V0M544,-12V0M568,-12V0M593,-24V0M617,-12V0M642,-12V0M666,-12V0M691,-12V0M715,-24V0M740,-12V0M764,-12V0M789,-12V0M813,-12V0M838,-24V0M862,-12V0M887,-12V0M911,-12V0M936,-12V0M960,-24V0" style="stroke: black; stroke-width: 1;"></path>
     <g font-family="Arial" font-size="28" space="preserve" fill="black" text-anchor="middle">
      <text dy=".8em" transform="translate(103,6)">
       -3
      </text>
      <text dy=".8em" transform="translate(225,6)">
       -2
      </text>
      <text dy=".8em" transform="translate(348,6)">
       -1
      </text>
      <text dy=".8em" transform="translate(470,6)">
       0
      </text>
      <text dy=".8em" transform="translate(593,6)">
       1
      </text>
      <text dy=".8em" transform="translate(715,6)">
       2
      </text>
      <text dy=".8em" transform="translate(838,6)">
       3
      </text>
      <text dy=".8em" transform="translate(960,6)">
       4
      </text>
     </g>
    </g>
    <g>
     <path d="M0,0v640M36,640H0M18,626H0M18,612H0M18,598H0M18,583H0M36,569H0M18,555H0M18,541H0M18,527H0M18,513H0M36,499H0M18,485H0M18,470H0M18,456H0M18,442H0M36,428H0M18,414H0M18,400H0M18,386H0M18,372H0M36,357H0M18,343H0M18,329H0M18,315H0M18,301H0M36,287H0M18,273H0M18,259H0M18,244H0M18,230H0M36,216H0M18,202H0M18,188H0M18,174H0M18,160H0M36,146H0M18,131H0M18,117H0M18,103H0M18,89H0M36,75H0M18,61H0M18,47H0M18,33H0M18,18H0M36,4H0" style="stroke: black; stroke-width: 1;"></path>
     <g font-family="Arial" font-size="28" space="preserve" fill="black" text-anchor="end">
      <text dy=".4em" transform="translate(-4,640)">
       0
      </text>
      <text dy=".4em" transform="translate(-4,569)">
       100
      </text>
      <text dy=".4em" transform="translate(-4,499)">
       200
      </text>
      <text dy=".4em" transform="translate(-4,428)">
       300
      </text>
      <text dy=".4em" transform="translate(-4,357)">
       400
      </text>
      <text dy=".4em" transform="translate(-4,287)">
       500
      </text>
      <text dy=".4em" transform="translate(-4,216)">
       600
      </text>
      <text dy=".4em" transform="translate(-4,146)">
       700
      </text>
      <text dy=".4em" transform="translate(-4,75)">
       800
      </text>
      <text dy=".4em" transform="translate(-4,4)">
       900
      </text>
     </g>
    </g>
   </g>
  </g>
  <g transform="translate(120,4)" font-family="Arial" font-size="40" space="preserve">
   <text fill="black" text-anchor="middle" dy=".8em" transform="translate(480)">
    This is the px distribution
   </text>
  </g>
  <g transform="translate(936,52)" font-family="Arial" font-size="25" space="preserve" fill="black">
   <path d="M0,0H240V128H0Z" style="fill: white; stroke: black; stroke-width: 1;"></path>
   <text text-anchor="middle" dy=".4em" transform="translate(120,16)">
    hpx
   </text>
   <text text-anchor="start" dy=".4em" transform="translate(12,48)">
    Entries
   </text>
   <text text-anchor="end" dy=".4em" transform="translate(228,48)">
    25000
   </text>
   <text text-anchor="start" dy=".4em" transform="translate(12,80)">
    Mean
   </text>
   <text text-anchor="end" dy=".4em" transform="translate(228,80)">
    0.003295
   </text>
   <text text-anchor="start" dy=".4em" transform="translate(12,112)">
    Std Dev
   </text>
   <text text-anchor="end" dy=".4em" transform="translate(228,112)">
    1.005
   </text>
   <path d="M0,32h240" style="stroke: black; stroke-width: 1;"></path>
  </g>
 </g>
</svg>
